source/assets/img/inout-twitter.svg

<?xml version="1.0" encoding="UTF-8"?>
<svg width="36px" height="36px" viewBox="0 0 36 36" version="1.1" xmlns="http://www.w3.org/2000/svg" xmlns:xlink="http://www.w3.org/1999/xlink">
    <!-- Generator: Sketch 42 (36781) - http://www.bohemiancoding.com/sketch -->
    <title>Twitter Normal@2x</title>
    <desc>Created with Sketch.</desc>
    <defs></defs>
    <g id="Page-1" stroke="none" stroke-width="1" fill="none" fill-rule="evenodd">
        <g id="Group-5">
            <path d="M35.2858234,23.00323 L35.2858234,23.00323 C32.5225177,32.550105 22.5433918,38.0491284 12.9967609,35.2859448 L12.9967609,35.2859448 C3.450008,32.5227612 -2.0490155,22.543269 0.714168102,12.9968823 L0.714290202,12.9968823 C3.4774738,3.45000726 13.4565998,-2.04901614 23.0033527,0.714167455 L23.0033527,0.714167455 C32.5499836,3.47735106 38.0491291,13.4568433 35.2858234,23.00323 Z" id="Shape-Copy-14" fill="#494976"></path>
            <path d="M24.4020996,15.5097658 L24.4020996,15.9487306 C24.4020996,17.5683595 24.0524902,19.1323244 23.3532715,20.6396486 C22.6540528,22.1469728 21.5738526,23.4238283 20.112793,24.4697267 C18.6517334,25.5161134 16.9610596,26.0390626 15.0407715,26.0390626 C13.1831055,26.0390626 11.5029297,25.510254 10,24.4531251 C10.1669922,24.475586 10.4279785,24.4868165 10.7827148,24.4868165 C12.3482666,24.4868165 13.715332,23.9804688 14.8842773,22.9682618 C14.1745605,22.9682618 13.5379638,22.7373048 12.9743652,22.2763673 C12.4108886,21.8149415 12.0142822,21.2246095 11.7846679,20.5043946 C11.9307861,20.5493165 12.1395263,20.5717774 12.4108886,20.5717774 C12.7238769,20.5717774 13.0161132,20.538086 13.2874755,20.4707032 C12.5360107,20.2905274 11.909912,19.8745118 11.4089355,19.222168 C10.907959,18.5698242 10.6575927,17.8271485 10.6575927,16.9946289 L10.6575927,16.9272461 C11.1375732,17.2197266 11.6280517,17.3657227 12.1290282,17.3657227 C11.1480712,16.690918 10.6575927,15.7124024 10.6575927,14.4296875 C10.6575927,13.8447266 10.8140868,13.2485352 11.1271972,12.6411133 C12.8596191,14.9809571 15.1137695,16.21875 17.8898925,16.3535156 C17.8272704,16.0834961 17.7958984,15.8134765 17.7958984,15.543457 C17.7958984,14.5761718 18.1142578,13.7436523 18.7508545,13.0463867 C19.3874512,12.3486328 20.1650391,12 21.083374,12 C22.043457,12 22.8470459,12.3710938 23.4941406,13.1137695 C24.3082275,12.9335937 25.0074463,12.6523437 25.5917968,12.2700195 C25.3414306,13.102539 24.861328,13.7548828 24.1516113,14.227539 C24.8822021,14.114746 25.5083008,13.9238281 26.0301513,13.6538085 C25.5917969,14.3735354 25.0491943,14.9921877 24.4020996,15.5097658 Z" id="Shape-Copy-26" fill="#FFFFFF"></path>
        </g>
    </g>
</svg>

<svg width="36" height="36" viewBox="0 0 36 36" xmlns="http://www.w3.org/2000/svg"><title>Twitter Normal@2x</title><desc>Created with Sketch.</desc><g fill="none"><path d="M35.286 23.003c-2.763 9.547-12.742 15.046-22.289 12.283s-15.046-12.743-12.283-22.289c2.763-9.547 12.742-15.046 22.289-12.283s15.046 12.743 12.282 22.289z" fill="#494976"/><path d="M24.402 15.51v.439c0 1.62-.35 3.184-1.049 4.691-.699 1.507-1.779 2.784-3.24 3.83-1.461 1.046-3.152 1.569-5.072 1.569-1.858 0-3.538-.529-5.041-1.586.167.022.428.034.783.034 1.566 0 2.933-.506 4.102-1.519-.71 0-1.346-.231-1.91-.692-.563-.461-.96-1.052-1.19-1.772.146.045.355.067.626.067.313 0 .605-.034.877-.101-.751-.18-1.378-.596-1.879-1.249-.501-.652-.751-1.395-.751-2.228v-.067c.48.292.97.438 1.471.438-.981-.675-1.471-1.653-1.471-2.936 0-.585.156-1.181.47-1.789 1.732 2.34 3.987 3.578 6.763 3.712-.063-.27-.094-.54-.094-.81 0-.967.318-1.8.955-2.497.637-.698 1.414-1.046 2.333-1.046.96 0 1.764.371 2.411 1.114.814-.18 1.513-.461 2.098-.844-.25.833-.73 1.485-1.44 1.958.731-.113 1.357-.304 1.879-.574-.438.72-.981 1.338-1.628 1.856z" fill="#fff"/></g></svg>
